X: 1995
T: Yellow Rose of Texas
B: australian traditional tunes wiki
M:2/4
L:1/16
R: Set Tune
Q: 1/4=100
K:D
V:1 
df|"D"a2A2 a2A2|"D"f2f2 f2fe|"G"d2de d2B2|"D"[A6d6]A2|"D"d2A2 d2e2|"D"f2a4f2|"Em"e3e e2f2|"A"e4d2f2|
"D"a2A2 a2A2|"D"f2A2 f2e2|"G"d3e d2B2|"D"A6A2|"D"d2dd d2e2|"D"f2a2 f2d2|"A"e2g2 f2e2|"D"d6ef||
"G"g2gg g2f2|"G"g2b4e2|"D"f3e f2e2|"D"d6Bc|"D"d2dd d2e2|"D"f2a4f2|"Em"f2e2 e2f2|"A"e6df|
"D"a2A2 a2A2|"D"f2e2 f2e2|"G"d2de d2B2|"D"A6de|"D"f2a2 f2d2|"A"e2g2 f2e2|"D"d4d4|"D"d6 (3ABc||
"D"A2dd d2d2|"D"B2A2 F2A2|"D"d2dd d2A2|"D"d4d2e2|"D"f2A2 f2A2|"D"a2f2 e2d2|"A"e4e2f2|"A"e6fg|
"D"a2A2 a2ba|"D"f2f2 f3f|"G"e2fe d2B2|"D"A6 Bc|"D"d2A2 d2BA|"D"A2d2 d2A2|"A"f2e2 d2c2|"D"d8||
% abcbook-tune_id 6342d5bead801454148cdacd


% abcbook-boost 0
% abcbook-tablature 
% abcbook-transpose 
% abcbook-lastupdated 1665324493162
% abcbook-soundfonts 
% abcbook-repeats 1
% NFF Book 2006

